X: 69
T:Old Hag You Have Killed Me
M:6/8
L:1/8
Q:1/4=150
R:Jig
F:http://www.prof.co.uk/music/abc/old_hag_you_have_killed_me.abc 2002-01-20 16:18:59 UT
K:G
A|"D"FDD cBc|"D"ded cAG|"D"ABA ABG|"D"ABA A2G|
"D"FDD cBc|"D"ded cAF|"G"GAG GcA|"G"GAG G2:|
e|"D"fef "C"gfg|"D"afd cAG|"D"ABA ABG|"D"ABA ABd|
"D"fef "C"gfg|"D"afd cAF|"G"GAG GcA|"G"GAG G2:|
